X: 8563
T: Cro Na nGabhar
R: jig
M: 6/8
K: Bminor
A|FAB AFD|FAF A2G|FAB AFD|d2c B2A|
FAB AFD|FAF A2G|FED Fdf|edc B2:|
d|AFF dFF|fFF AEE|AFF dFF|fdA B2d|
[1 AFF dFF|fFF A2G|FED Adf|edc B2:|
[2 ABc def|edc dcB|AFD Adf|edc B3||

